!!!SOCIAL_FUNCTION:	songs of personal narratives concerning war
!!!PDT:	1918

Specific Region: Dakotas, Minnesota, Montana, Nebraska
!!!REG: Dakotas and Montana
!!!LING_GROUP: Siouan
!!!LANG: Tone
!!!OTL@ENG: I Am the Fox
!!!ONM: No. 178
**kern
*Imale
*clefF4
*M2/4
*MM66
8a
8a
=1
16a
8.e
16a
8.e
=2
[2e
=3
4e]
8e
8a
=4
16a
8.e
16a
8.e
=5
[4e
8e]
16c
16c
=6||
*M3/4
8c
8c
8c
8c
8B
8B
=7
8A
8A
8E
8E
8E
8A
=8||
*M2/4
8E
8E
8E
8E
=9
2E
=10
2E
=11
4.E
8e
=12
8a
(16a
16e)
8e
(16f
16e)
=13
[4e
16e]
16c
8c
=14
8c
8c
8c
8c
=15
8B
8B
8B
8B
=16||
*M3/4
8A
8A
(16A
8.E)
8E
8B
=17||
*M2/4
8A
8A
8E
8E
=18
4.E
8C
=19
4E
4E
=20
4E
4r
==
*-
!!!CNT: Native American -- Sioux
!!!MRD: 1911/07//-1914///
!!!OCL: Frances Densmore
!!!YOR1: Teton Sioux Music, Bulletin 61,
!!!YOR2: Bureau of American Ethnology, Smithsonian Institution
!!!PPR: Government Printing Office
!!!PPP: Washington, D.C.
!!!PDT: 1918///
!!!ENC: Craig Stuart Sapp
!!!END: 2002/03/25/
!!!EEV: 2002/03/31/
!!!AGN: War Song/Song of Personal Narrative Concerning War
!!!MPN@@SIO: Tatangk'-ehang'ni
!!!MPN@ENG: Old Buffalo
!!!TXO: Teton Sioux
!!!MLC: Standing Rock Reservation, South Dakota, United States of America
!!!ARL: 45.9/-100.7#
!!!catalog: Catalogue No. 637
!!!PPG: 413
!!!EFL: 183/245
!!!VTS: 4249190389
